X: 562
T: Fire on the Mountain
B: jims roots
M:2/4
L:1/8
Q: 1/4=100
K:A
V:1 
%S:Kuntz  Ragged but Right
|: "A"efed cBAc | "G"BA=GF EFGA | "A"efed cBAc | "E"BAGB "A"ABcd :|
|: "A"efed cAcd | "G"efef =gagf | "A"efed cBAc | [1 "E"BAGB "A"ABcd :|
V:2 "E"BAGB "A"A2 fg |:[P:B Part
V:K:D 
"D"abag fgfd | [df][de][df][df] "G"[d3g]g | "D"fgfd "A"efec |
V:1"D"dcdf "A"e2fg :| [2 "D"dcdf "A"e3(^d | [ee
)[ef][ee][de] [ce][Be][Ae][ce] | "E"[Be]A^GB "A"A2 ||
% abcbook-tune_id 6298c25d3cff1cd6b1b01408


% abcbook-boost 0
% abcbook-tablature 
% abcbook-transpose 
% abcbook-lastupdated 1654178397966
% abcbook-soundfonts 
% abcbook-repeats 1


